X:1
T:Da Pacem, 87.87 D
T:Thomas Ravenscroft, 1621
T:Da Pacem, 87.87 D
T:Public Domain
T:Public Domain
C:Thomas Ravenscroft, 1621
Z:Public Domain
%%score ( 1 2 ) ( 3 4 )
L:1/8
M:none
K:C
V:1 treble 
V:2 treble 
V:3 bass 
V:4 bass 
V:1
"^Tune in tenor" [CG]4 A2 z D x | [Cc]4 z2 F2 | [EB]2 [CA]2 [CG]4 | [Gc]2 [EG]4 [CE]2 | %4
 [CF]2 C2 z A, [A,D]2 | [A,^C]4 z2 C2 | A2 z D [Cc]2 [Cc]2 | z2 F2 [EB]2 [CA]2 | %8
 [CG]4 [Gc]2 [EG]2- x4 | [EG]2 [CE]2 [C-F]2 C2 x | z A, D2 [A,^C]4 | [Cc]2 [EA]4 ED | %12
 [CA]4 D2 z2 x4 | ^F2 [^CE]2 [DF]4 | [B,D]4 [B,G]2 [DB]2 | [DG]2 G2 A2 GF | %16
 [Ec]4 [EG]4 F>A z F [EG]4 d2 A,2 C2 [DB]2 [Ec]4 | z2 [Ec]2 F>E [DG]2 A z D3 ^F/E/ z C [B,G]8 |] %18
V:2
 x4 D3 B2 | x4 c4 | x8 | x8 | x2 E3 A,2 x | x4 G4 | D3 B2 x3 | c4 x4 | x12 | x6 E3 | A,4 x4 | %11
 x6 ^G2 | x4 ^G4 D4 | x8 | x8 | x2 c4 B2 | x8 D3 (G2 x5 c4) x6 | (G4 A2) x/ E2 G3 x ^F2 x19/2 |] %18
V:3
 [C,E,]4 [F,,F,]2 [G,,D,]2 x | [C,E,]4 [F,,A,]4 | [G,,G,]2 A,,B,, [C,E,]4 | G,2 z2 C,2 [C,G,]2 | %4
 [F,A,]2 [C,E,]2 [D,F,]2 [D,F,]2 | [A,,E,]4 [C,E,]4 | [F,,F,]2 [G,,D,]2 [C,E,]2 [C,E,]2 | %7
 [F,,A,]4 [G,,G,]2 A,,B,, | [C,E,]4 G,2 z2 x4 | C,2 [C,G,]2 [F,A,]2 [C,E,]2 x | [D,F,]4 [A,,E,]4 | %11
 [A,,E]4 [E,C]2 [E,B,]2 | [A,,C]4 [G,,B,]4 x4 | [D,A,]2 [E,G,]2 [D,A,]4 | %14
 [G,,G,]4 [G,,G,]2 [G,,G,]2 | [G,B,]2 [E,C]2 F,2 G,2 | %16
 [C,C]4 [C,C]4 [D,A,]2 [G,,B,]2 [C,C]4 [F,A,]4 [E,G,]2 [D,F,]2 [C,G,]4 | %17
 [C,E,]4 [C,G,]2 [F,A,]2 [G,B,]2 [C,C]2 [D,A,]4 [G,,G,]8 |] %18
V:4
 x9 | x8 | x2 F,2 x4 | C,4 C4 | x8 | x8 | x8 | x6 F,2 | x4 C,4 C4 | x9 | x8 | x8 | x12 | x8 | x8 | %15
 x4 D4 | x28 | x24 |] %18

